X:1
T:Walking in the King’s Highway
T:Walking in the King’s Highway
T:Anthony Johnson Showalter
T:Anthony Johnson Showalter, 1901
T:Public Domain Courtesy of the Cyber Hymnal™
T:Public Domain Courtesy of the Cyber Hymnal™
C:Anthony Johnson Showalter
Z:Public Domain
Z:Courtesy of the Cyber Hymnal™
%%score ( 1 2 ) 3
L:1/8
Q:1/4=110
M:4/4
K:F
V:1 treble 
V:2 treble 
V:3 bass 
V:1
 [CF]2 | [FA]2 [FA]2 [CG]2 [CF]2 | [Fc]2 [Fd]2 [Fc]2 z2 | [Fc]>[Fc] [CF]>[CG] [FA]2 [Fc]2 | %4
w: 1.~We’re|bound for glo- ry-|land on high,|Walk- ing in the King’s high-|
w: 2.~This|is the way our|fa- thers trod,|Walk- ing in the King’s high-|
w: 3.~The|lame shall leap, the|dumb shall sing,|Walk- ing in the King’s high-|
w: 4.~No|un- clean thing may|pass this road,|Walk- ing in the King’s high-|
w: 5.~No|li- ons here, nor|rag- ing beast,|Walk- ing in the King’s high-|
w: 6.~We|sing glad songs of|joy and peace,|Walk- ing in the King’s high-|
 [EG]6 [CF]2 | [FA]2 [FA]2 [CG]2 [CF]2 | [Fc]2 [Fd]2 [Fc]2 z2 | [Fc]>[Fc] F>[FG] [FA]2 [EG]2 | %8
w: way; We’ll|reach its man- sions|by and by,|Walk- ing in the King’s high-|
w: way; The|way that leads to|Heav’n and God,|Walk- ing in the King’s high-|
w: way; In|de- sert lands shall|burst a spring,|Walk- ing in the King’s high-|
w: way; But|bur- dened souls may|here un- load,|Walk- ing in the King’s high-|
w: way; But|ran- somed souls as|kings and priests,|Walk- ing in the King’s high-|
w: way; From|doubt and fear we’ve|found re- lease,|Walk- ing in the King’s high-|
 F6 z2 ||"^Refrain" [Ac]>[Ac] [FA]>[GB] [Ac]2 [^Fd]2 | [GB]6 z2 | [GB]>[GB] [EG]>[FA] [GB]2 [Ec]2 | %12
w: way.||||
w: way.||||
w: way.|Walk- ing in the King’s high-|way,|Walk- ing in the King’s high-|
w: way.||||
w: way.||||
w: way.||||
 [FA]6 [CF]2 | [FA]2 [FA]2 [CG]2 [CF]2 | [Fc]2 [Fd]2 [Fc]2 z2 | [Fc]>[Fc] F>[FG] [FA]2 [EG]2 | %16
w: ||||
w: ||||
w: way; And|life is grand and|glor- i- ous,|Walk- ing in the King’s high-|
w: ||||
w: ||||
w: ||||
 F6 |] %17
w: |
w: |
w: way.|
w: |
w: |
w: |
V:2
 x2 | x8 | x8 | x8 | x8 | x8 | x8 | x2 F3/2 x9/2 | F6 x2 || x8 | x8 | x8 | x8 | x8 | x8 | %15
 x2 F3/2 x9/2 | F6 |] %17
V:3
 [F,A,]2 | [F,C]2 [F,C]2 [F,B,]2 [F,A,]2 | [F,A,]2 [F,B,]2 [F,A,]2 z2 | %3
w: ~|~ ~ ~ ~|~ ~ ~|
 [F,A,]>[F,A,] [F,A,]>[F,B,] [F,C]2 [A,,C]2 | [C,C]6 [F,A,]2 | [F,C]2 [F,C]2 [F,B,]2 [F,A,]2 | %6
w: ~ ~ ~ ~ ~ ~|~ ~|~ ~ ~ ~|
 [F,A,]2 [F,B,]2 [F,A,]2 z2 | [F,A,]>[F,A,] [A,,C]>[B,,D] [C,C]2 [C,B,]2 | [F,A,]6 z2 || %9
w: ~ ~ ~|~ ~ ~ ~ ~ ~|~|
 [F,C]>[F,C] z4 [D,D]2 | [G,D]>[G,D] [G,D]>[G,D] [G,D]2 z2 | [C,C]>[C,C] z4 [C,C]2 | %12
w: Walk- ing, Yes,|walk- ing in His way;|Walk- ing, Yes,|
 [F,C]>[F,C] [F,C]>[F,C] [F,C]2 [F,A,]2 | [F,C]2 [F,C]2 [F,B,]2 [F,A,]2 | %14
w: walk- ing in His way; *||
 [F,A,]2 [F,B,]2 [F,A,]2 z2 | [F,A,]>[F,A,] [A,,C]>[B,,D] [C,C]2 [C,B,]2 | [F,A,]6 |] %17
w: |||

